build/img/icons/online-shopping.svg

<svg width="26" height="26" viewBox="0 0 26 26" fill="none" xmlns="http://www.w3.org/2000/svg">
<g clip-path="url(#clip0)">
<path d="M16.5208 9.75001H8.39583C8.01449 9.75001 7.68516 9.48568 7.60283 9.11409L6.51949 4.23909C6.46641 3.99751 6.52383 3.74618 6.67874 3.55334C6.83258 3.36268 7.06549 3.25001 7.31249 3.25001H17.1968L17.9021 0.603427C18.0169 0.171177 18.4632 -0.0899062 18.8966 0.0281772C19.3299 0.14301 19.5877 0.589344 19.4718 1.02268L17.3052 9.14768C17.2109 9.50193 16.8892 9.75001 16.5208 9.75001ZM9.04799 8.12501H15.8968L16.7635 4.87501H8.32541L9.04799 8.12501Z" fill="#201D54"/>
<path d="M10.8333 12.9999C11.4316 12.9999 11.9167 12.5149 11.9167 11.9166C11.9167 11.3183 11.4316 10.8333 10.8333 10.8333C10.235 10.8333 9.75 11.3183 9.75 11.9166C9.75 12.5149 10.235 12.9999 10.8333 12.9999Z" fill="#201D54"/>
<path d="M15.1666 12.9999C15.765 12.9999 16.25 12.5149 16.25 11.9166C16.25 11.3183 15.765 10.8333 15.1666 10.8333C14.5683 10.8333 14.0833 11.3183 14.0833 11.9166C14.0833 12.5149 14.5683 12.9999 15.1666 12.9999Z" fill="#201D54"/>
<path d="M24.1042 22.7499H1.89583C0.850417 22.7499 0 21.8995 0 20.8541V6.22909C0 5.18367 0.850417 4.33325 1.89583 4.33325H3.52083C3.96933 4.33325 4.33333 4.69725 4.33333 5.14575C4.33333 5.59425 3.96933 5.95825 3.52083 5.95825H1.89583C1.74633 5.95825 1.625 6.07959 1.625 6.22909V20.8541C1.625 21.0036 1.74633 21.1249 1.89583 21.1249H24.1042C24.2537 21.1249 24.375 21.0036 24.375 20.8541V6.22909C24.375 6.07959 24.2537 5.95825 24.1042 5.95825H21.125C20.6765 5.95825 20.3125 5.59425 20.3125 5.14575C20.3125 4.69725 20.6765 4.33325 21.125 4.33325H24.1042C25.1496 4.33325 26 5.18367 26 6.22909V20.8541C26 21.8995 25.1496 22.7499 24.1042 22.7499Z" fill="#201D54"/>
<path d="M25.1875 18.9583H0.8125C0.364 18.9583 0 18.5943 0 18.1458C0 17.6973 0.364 17.3333 0.8125 17.3333H25.1875C25.636 17.3333 26 17.6973 26 18.1458C26 18.5943 25.636 18.9583 25.1875 18.9583Z" fill="#201D54"/>
<path d="M16.5208 26H9.47915C9.1509 26 8.85406 25.8018 8.7284 25.4984C8.60273 25.1951 8.67206 24.8462 8.90498 24.6133C10.0327 23.4856 10.2754 21.8476 10.2776 21.8324C10.3371 21.3872 10.7434 21.0697 11.1886 21.1326C11.6339 21.1911 11.947 21.5995 11.8885 22.0437C11.8798 22.1076 11.7292 23.1985 11.0825 24.375H14.8991C14.2588 23.205 14.0996 22.113 14.0909 22.0491C14.0291 21.6049 14.339 21.1954 14.7842 21.1326C15.2306 21.0697 15.639 21.3807 15.7007 21.8248C15.7083 21.8736 15.9521 23.4162 16.9834 24.5191C17.1946 24.6664 17.3333 24.9102 17.3333 25.1875C17.3333 25.636 16.9693 26 16.5208 26Z" fill="#201D54"/>
</g>
<defs>
<clipPath id="clip0">
<rect width="26" height="26" fill="white"/>
</clipPath>
</defs>
</svg>

<svg width="26" height="26" fill="none" xmlns="http://www.w3.org/2000/svg"><g clip-path="url(#clip0)" fill="#201D54"><path d="M16.52 9.75H8.397a.812.812 0 01-.793-.636L6.519 4.24a.813.813 0 01.793-.989h9.885l.705-2.647a.811.811 0 111.57.42l-2.167 8.125a.812.812 0 01-.784.602zM9.049 8.125h6.849l.867-3.25h-8.44l.723 3.25zM10.833 13a1.083 1.083 0 100-2.167 1.083 1.083 0 000 2.167zm4.334 0a1.083 1.083 0 100-2.167 1.083 1.083 0 000 2.167z"/><path d="M24.104 22.75H1.896A1.898 1.898 0 010 20.854V6.23c0-1.045.85-1.896 1.896-1.896H3.52a.813.813 0 010 1.625H1.896a.27.27 0 00-.271.271v14.625c0 .15.121.27.27.27h22.21a.27.27 0 00.27-.27V6.23a.27.27 0 00-.27-.27h-2.98a.813.813 0 010-1.626h2.98c1.045 0 1.895.85 1.895 1.896v14.625c0 1.046-.85 1.896-1.896 1.896z"/><path d="M25.188 18.958H.813a.813.813 0 010-1.625h24.375a.813.813 0 010 1.625zM16.52 26H9.48a.813.813 0 01-.575-1.387c1.128-1.127 1.37-2.765 1.373-2.78a.812.812 0 011.61.211 7.288 7.288 0 01-.806 2.331H14.9a7.453 7.453 0 01-.808-2.326.813.813 0 011.61-.224c.007.049.251 1.591 1.282 2.694A.813.813 0 0116.521 26z"/></g><defs><clipPath id="clip0"><path fill="#fff" d="M0 0h26v26H0z"/></clipPath></defs></svg>
